X:37
T:Mary Claflin's
T:Redican's Bow
R:reel
Z:Transcribed by Dave Marshall
M:C|
K:D
|: D2FD A,DFD | E2GE B,EGE | Ddcd BAFD | EDCD EGFE |
D2FD A,DFD | E2GE B,EGE | Ddcd BAFD | EDCE D4 :|
|: ~B3c ~B3c | dBBA BAFG | A2cA eAcB | ABce fcec |
~B3c ~B3c | dBBA BAFA | d2cd BAFG |1 ABce faec :|2 AdcB AGFE |
